client/public/images/logo/vector/logo.svg

<svg height="80" viewBox="0 0 600 80" width="600" xmlns="http://www.w3.org/2000/svg"><path d="m0 0h600v80h-600z" fill="#0e3d54"/><path d="m33.92 7.44v2.42h-5.85v-2.42q0-.31-.26-.31h-19.45q-.31 0-.31.31v6.51q0 .31.31.31h19.45q2.51 0 4.31 1.78 1.8 1.78 1.8 4.33v6.51q0 2.56-1.8 4.34-1.8 1.78-4.31 1.78h-19.45q-2.55 0-4.33-1.78-1.79-1.78-1.79-4.34v-2.42h5.81v2.42q0 .31.31.31h19.45q.26 0 .26-.31v-6.51q0-.31-.26-.31h-19.45q-2.55 0-4.33-1.78-1.79-1.78-1.79-4.33v-6.51q0-2.56 1.79-4.34 1.78-1.78 4.33-1.78h19.45q2.51 0 4.31 1.78 1.8 1.78 1.8 4.34zm4.71 25.56v-31.64h25.52q2.55 0 4.36 1.81 1.8 1.8 1.8 4.31v8.54q0 2.5-1.8 4.31-1.81 1.8-4.36 1.8l-19.58.05-.13-.05v10.87zm25.83-16.98v-8.54q0-.31-.31-.31h-19.4q-.31 0-.31.31v8.54q0 .3.31.3h19.4q.31 0 .31-.3zm15-14.7h19.45q2.51 0 4.31 1.78 1.81 1.78 1.81 4.34v19.44q0 2.56-1.81 4.34-1.8 1.78-4.31 1.78h-19.45q-2.55 0-4.33-1.78-1.78-1.78-1.78-4.34v-19.44q0-2.56 1.78-4.34 1.78-1.78 4.33-1.78zm0 25.87h19.45q.27 0 .27-.31v-19.44q0-.31-.27-.31h-19.45q-.3 0-.3.31v19.44q0 .31.3.31zm62.04-19.71v8.54q0 2.5-1.8 4.31-1.8 1.8-4.36 1.8h-1.71l7.87 9.37v1.5h-6.33l-9.15-10.87h-10.26-.13v10.87h-5.81v-31.64h25.52q2.56 0 4.36 1.81 1.8 1.8 1.8 4.31zm-25.56 8.84h19.4q.31 0 .31-.3v-8.54q0-.31-.31-.31h-19.4q-.31 0-.31.31v8.54q0 .3.31.3zm28.64-9.19v-5.81h31.68v5.81h-12.89v25.87h-5.85v-25.87zm66.44.31v2.42h-5.85v-2.42q0-.31-.26-.31h-19.45q-.31 0-.31.31v6.51q0 .31.31.31h19.45q2.51 0 4.31 1.78 1.8 1.78 1.8 4.33v6.51q0 2.56-1.8 4.34-1.8 1.78-4.31 1.78h-19.45q-2.55 0-4.33-1.78-1.79-1.78-1.79-4.34v-2.42h5.81v2.42q0 .31.31.31h19.45q.26 0 .26-.31v-6.51q0-.31-.26-.31h-19.45q-2.55 0-4.33-1.78-1.79-1.78-1.79-4.33v-6.51q0-2.56 1.79-4.34 1.78-1.78 4.33-1.78h19.45q2.51 0 4.31 1.78 1.8 1.78 1.8 4.34zm24.6-6.12 19.49 23.23v-23.23h5.85v31.68h-6.33l-19.54-23.23v23.23h-5.81v-31.68zm56.01 25.56v-25.56h5.85v25.56q0 2.56-1.8 4.34-1.8 1.78-4.31 1.78h-19.45q-2.55 0-4.33-1.78-1.79-1.78-1.79-4.34v-25.56h5.81v25.56q0 .31.31.31h19.45q.26 0 .26-.31zm42.29-25.56v5.81h-25.48q-.31 0-.31.31v19.44q0 .31.31.31h25.48v5.81h-25.48q-2.55 0-4.33-1.78-1.79-1.78-1.79-4.34v-19.44q0-2.56 1.79-4.34 1.78-1.78 4.33-1.78zm36.3 31.68h-31.68v-31.72h5.8v25.91h25.88zm2.64-31.68h29.12v5.81h-23.27v7.13h18.74v5.8h-18.74v7.13h23.27v5.81h-29.12zm59.35 25.56v-25.56h5.85v25.56q0 2.56-1.8 4.34-1.8 1.78-4.31 1.78h-19.45q-2.55 0-4.33-1.78-1.79-1.78-1.79-4.34v-25.56h5.81v25.56q0 .31.31.31h19.45q.26 0 .26-.31zm42.15-19.44v2.42h-5.85v-2.42q0-.31-.26-.31h-19.45q-.31 0-.31.31v6.51q0 .31.31.31h19.45q2.51 0 4.31 1.78 1.8 1.78 1.8 4.33v6.51q0 2.56-1.8 4.34-1.8 1.78-4.31 1.78h-19.45q-2.55 0-4.33-1.78-1.79-1.78-1.79-4.34v-2.42h5.81v2.42q0 .31.31.31h19.45q.26 0 .26-.31v-6.51q0-.31-.26-.31h-19.45q-2.55 0-4.33-1.78-1.79-1.78-1.79-4.33v-6.51q0-2.56 1.79-4.34 1.78-1.78 4.33-1.78h19.45q2.51 0 4.31 1.78 1.8 1.78 1.8 4.34z" fill="#fff" transform="translate(100 13)"/><g transform="matrix(-.33333333 0 0 .33333333 82 14)"><g fill="#1b6dc1"><ellipse cx="59.963" cy="11.227" rx="11.194" ry="11.227"/><path d="m156.322 83.716c-6.182 0-11.194 5.025-11.194 11.228 0 6.199 5.013 11.226 11.194 11.226 6.186 0 11.199-5.027 11.199-11.226 0-6.2-5.013-11.228-11.199-11.228z"/><path d="m45.134 121.696c-6.182 0-11.196 5.027-11.196 11.229 0 6.201 5.014 11.229 11.196 11.229 6.18 0 11.195-5.029 11.195-11.229 0-6.204-5.016-11.229-11.195-11.229z"/></g><path d="m144.456 102.324c-1.142-1.845-1.871-3.968-2.05-6.253-3.366.938-6.975 1.771-10.76 2.503l2.4 5.862c3.621-.642 7.117-1.33 10.41-2.112zm-54.453-49.08c-48.792 0-90.003 12.56-90.003 27.425 0 14.867 41.211 27.424 90.003 27.424 11.521 0 22.59-.721 32.824-1.987l-1.736-5.84c-9.68 1.291-20.198 1.991-31.088 1.991-20.583 0-39.95-2.411-54.535-6.795-15.12-4.543-23.448-10.806-23.448-17.648 0-6.839 8.328-13.104 23.448-17.651 14.582-4.378 33.952-6.793 54.535-6.793 20.572 0 39.94 2.415 54.524 6.793 15.123 4.545 23.447 10.813 23.447 17.651 0 2.223-.894 4.387-2.606 6.45 2.53 2.155 4.274 5.202 4.771 8.655 6.274-3.711 9.86-7.879 9.86-12.25-.001-14.865-41.22-27.425-89.996-27.425z" fill="#fff"/><path d="m43.525 119.001c.528-.063 1.066-.098 1.61-.098 1.771 0 3.458.34 5.012.941.896-3.676 2.061-7.586 3.458-11.668l-6.096-1.348c-1.535 4.213-2.867 8.287-3.984 12.173zm18.354 31.495c-3.292.891-6.12.659-8.406-.664-1.45-.836-2.592-2.131-3.484-3.773-1.519.563-3.145.887-4.856.887-2.046 0-3.99-.455-5.749-1.256.3 6.506 2.108 11.133 5.614 13.16 11.166 6.465 36.414-15.031 58.85-48.625-.046-.047-.082-.094-.13-.137-14.809 21.858-30.675 37.412-41.839 40.408zm73.12-148.004c-12.838-7.436-44.292 22.086-68.684 64.466-5.722 9.939-10.606 19.849-14.614 29.31l5.884 1.448c3.677-8.901 8.292-18.327 13.769-27.84 10.295-17.876 22.061-33.492 33.132-43.966 11.486-10.872 21.058-14.964 26.966-11.546 5.899 3.418 7.149 13.784 3.517 29.191-.763 3.214-1.748 6.594-2.876 10.07.21.082.414.178.603.292 9.338-25.823 10.92-46.437 2.303-51.425zm-21.431 91.832c-.901 1.563-1.813 3.102-2.729 4.622.032.035.063.062.093.099.924-1.541 1.84-3.086 2.745-4.656.876-1.527 1.736-3.053 2.574-4.578-.043-.008-.088-.016-.135-.023-.828 1.51-1.68 3.023-2.548 4.536zm16.741-34.11c-.166-.007-.326-.021-.488-.047-2.062 5.553-4.525 11.326-7.328 17.193.064.02.131.035.197.05 2.85-5.858 5.403-11.622 7.619-17.196z" fill="#fff"/><path d="m73.503 14.656c-.615 2.444-1.852 4.632-3.554 6.376 4.68 3.722 9.676 8.668 14.758 14.562l3.588-5.348c-5.02-5.99-10.008-11.258-14.792-15.59zm40.174 52.302c-5.518-9.595-11.45-18.601-17.472-26.69-1.441 1.33-3.059 2.834-4.406 4.094 5.744 7.555 11.463 16.176 16.844 25.513 10.289 17.878 17.883 35.906 21.396 50.767 3.635 15.406 2.387 25.773-3.519 29.188-5.905 3.422-15.478-.676-26.961-11.539-7.535-7.129-15.384-16.637-22.875-27.619-.056.029-.11.066-.164.095 22.34 33.284 47.374 54.521 58.48 48.086 12.833-7.436 3.07-49.521-21.323-91.895zm-69.909-45.626c.628-2.353 1.638-4.196 2.99-5.55-.49-1.429-.771-2.954-.771-4.552 0-3.836 1.542-7.311 4.032-9.844-1.923-.08-3.607.289-5.019 1.108-2.214 1.284-3.802 3.674-4.72 7.116-2.516 9.399.208 25.439 6.896 44.014.196-.09.406-.17.627-.23-4.362-13.502-5.946-24.906-4.035-32.062zm22.547 73.052c.758 1.316 1.522 2.623 2.292 3.914.036-.03.068-.057.104-.09-.768-1.285-1.532-2.582-2.286-3.891-.96-1.672-1.892-3.336-2.8-5.004-.044.018-.092.023-.136.039.925 1.681 1.864 3.356 2.826 5.032zm-16.713-35.755c-.166.017-.33.039-.504.039-.008 0-.018-.004-.022-.004 2.334 6.002 5.06 12.22 8.124 18.523.062-.027.124-.058.188-.082-3.037-6.374-5.657-12.589-7.786-18.476z" fill="#fff"/></g></svg>

<svg xmlns="http://www.w3.org/2000/svg" width="600" height="80" viewBox="0 0 600 80"><rect x="0" y="0" width="600" height="80" fill="#0e3d54"/><g transform="translate(94,13)translate(245,27)rotate(0)translate(-245,-27)" opacity="1"><path transform="translate(6,0)rotate(0)" d="M33.92 7.44L33.92 7.44L33.92 9.86L28.07 9.86L28.07 7.44L28.07 7.44Q28.07 7.13 27.81 7.13L27.81 7.13L8.36 7.13L8.36 7.13Q8.05 7.13 8.05 7.44L8.05 7.44L8.05 13.95L8.05 13.95Q8.05 14.26 8.36 14.26L8.36 14.26L27.81 14.26L27.81 14.26Q30.32 14.26 32.12 16.04L32.12 16.04L32.12 16.04Q33.92 17.82 33.92 20.37L33.92 20.37L33.92 26.88L33.92 26.88Q33.92 29.44 32.12 31.22L32.12 31.22L32.12 31.22Q30.32 33 27.81 33L27.81 33L8.36 33L8.36 33Q5.81 33 4.03 31.22L4.03 31.22L4.03 31.22Q2.24 29.44 2.24 26.88L2.24 26.88L2.24 24.46L8.05 24.46L8.05 26.88L8.05 26.88Q8.05 27.19 8.36 27.19L8.36 27.19L27.81 27.19L27.81 27.19Q28.07 27.19 28.07 26.88L28.07 26.88L28.07 20.37L28.07 20.37Q28.07 20.06 27.81 20.06L27.81 20.06L8.36 20.06L8.36 20.06Q5.81 20.06 4.03 18.28L4.03 18.28L4.03 18.28Q2.24 16.50 2.24 13.95L2.24 13.95L2.24 7.44L2.24 7.44Q2.24 4.88 4.03 3.10L4.03 3.10L4.03 3.10Q5.81 1.32 8.36 1.32L8.36 1.32L27.81 1.32L27.81 1.32Q30.32 1.32 32.12 3.10L32.12 3.10L32.12 3.10Q33.92 4.88 33.92 7.44ZM38.63 33L38.63 1.36L64.15 1.36L64.15 1.36Q66.70 1.36 68.51 3.17L68.51 3.17L68.51 3.17Q70.31 4.97 70.31 7.48L70.31 7.48L70.31 16.02L70.31 16.02Q70.31 18.52 68.51 20.33L68.51 20.33L68.51 20.33Q66.70 22.13 64.15 22.13L64.15 22.13L44.57 22.18L44.44 22.13L44.44 33L38.63 33ZM64.46 16.02L64.46 16.02L64.46 7.48L64.46 7.48Q64.46 7.17 64.15 7.17L64.15 7.17L44.75 7.17L44.75 7.17Q44.44 7.17 44.44 7.48L44.44 7.48L44.44 16.02L44.44 16.02Q44.44 16.32 44.75 16.32L44.75 16.32L64.15 16.32L64.15 16.32Q64.46 16.32 64.46 16.02ZM79.46 1.32L79.46 1.32L98.91 1.32L98.91 1.32Q101.42 1.32 103.22 3.10L103.22 3.10L103.22 3.10Q105.03 4.88 105.03 7.44L105.03 7.44L105.03 26.88L105.03 26.88Q105.03 29.44 103.22 31.22L103.22 31.22L103.22 31.22Q101.42 33 98.91 33L98.91 33L79.46 33L79.46 33Q76.91 33 75.13 31.22L75.13 31.22L75.13 31.22Q73.35 29.44 73.35 26.88L73.35 26.88L73.35 7.44L73.35 7.44Q73.35 4.88 75.13 3.10L75.13 3.10L75.13 3.10Q76.91 1.32 79.46 1.32ZM79.46 27.19L79.46 27.19L98.91 27.19L98.91 27.19Q99.18 27.19 99.18 26.88L99.18 26.88L99.18 7.44L99.18 7.44Q99.18 7.13 98.91 7.13L98.91 7.13L79.46 7.13L79.46 7.13Q79.16 7.13 79.16 7.44L79.16 7.44L79.16 26.88L79.16 26.88Q79.16 27.19 79.46 27.19ZM141.50 7.48L141.50 7.48L141.50 16.02L141.50 16.02Q141.50 18.52 139.70 20.33L139.70 20.33L139.70 20.33Q137.90 22.13 135.34 22.13L135.34 22.13L133.63 22.13L141.50 31.50L141.50 33L135.17 33L126.02 22.13L115.76 22.13L115.63 22.13L115.63 33L109.82 33L109.82 1.36L135.34 1.36L135.34 1.36Q137.90 1.36 139.70 3.17L139.70 3.17L139.70 3.17Q141.50 4.97 141.50 7.48ZM115.94 16.32L115.94 16.32L135.34 16.32L135.34 16.32Q135.65 16.32 135.65 16.02L135.65 16.02L135.65 7.48L135.65 7.48Q135.65 7.17 135.34 7.17L135.34 7.17L115.94 7.17L115.94 7.17Q115.63 7.17 115.63 7.48L115.63 7.48L115.63 16.02L115.63 16.02Q115.63 16.32 115.94 16.32ZM144.58 7.13L144.58 1.32L176.26 1.32L176.26 7.13L163.37 7.13L163.37 33L157.52 33L157.52 7.13L144.58 7.13ZM211.02 7.44L211.02 7.44L211.02 9.86L205.17 9.86L205.17 7.44L205.17 7.44Q205.17 7.13 204.91 7.13L204.91 7.13L185.46 7.13L185.46 7.13Q185.15 7.13 185.15 7.44L185.15 7.44L185.15 13.95L185.15 13.95Q185.15 14.26 185.46 14.26L185.46 14.26L204.91 14.26L204.91 14.26Q207.42 14.26 209.22 16.04L209.22 16.04L209.22 16.04Q211.02 17.82 211.02 20.37L211.02 20.37L211.02 26.88L211.02 26.88Q211.02 29.44 209.22 31.22L209.22 31.22L209.22 31.22Q207.42 33 204.91 33L204.91 33L185.46 33L185.46 33Q182.91 33 181.13 31.22L181.13 31.22L181.13 31.22Q179.34 29.44 179.34 26.88L179.34 26.88L179.34 24.46L185.15 24.46L185.15 26.88L185.15 26.88Q185.15 27.19 185.46 27.19L185.46 27.19L204.91 27.19L204.91 27.19Q205.17 27.19 205.17 26.88L205.17 26.88L205.17 20.37L205.17 20.37Q205.17 20.06 204.91 20.06L204.91 20.06L185.46 20.06L185.46 20.06Q182.91 20.06 181.13 18.28L181.13 18.28L181.13 18.28Q179.34 16.50 179.34 13.95L179.34 13.95L179.34 7.44L179.34 7.44Q179.34 4.88 181.13 3.10L181.13 3.10L181.13 3.10Q182.91 1.32 185.46 1.32L185.46 1.32L204.91 1.32L204.91 1.32Q207.42 1.32 209.22 3.10L209.22 3.10L209.22 3.10Q211.02 4.88 211.02 7.44ZM235.62 1.32L255.11 24.55L255.11 1.32L260.96 1.32L260.96 33L254.63 33L235.09 9.77L235.09 33L229.28 33L229.28 1.32L235.62 1.32ZM291.63 26.88L291.63 26.88L291.63 1.32L297.48 1.32L297.48 26.88L297.48 26.88Q297.48 29.44 295.68 31.22L295.68 31.22L295.68 31.22Q293.88 33 291.37 33L291.37 33L271.92 33L271.92 33Q269.37 33 267.59 31.22L267.59 31.22L267.59 31.22Q265.80 29.44 265.80 26.88L265.80 26.88L265.80 1.32L271.61 1.32L271.61 26.88L271.61 26.88Q271.61 27.19 271.92 27.19L271.92 27.19L291.37 27.19L291.37 27.19Q291.63 27.19 291.63 26.88ZM333.92 1.32L333.92 7.13L308.44 7.13L308.44 7.13Q308.13 7.13 308.13 7.44L308.13 7.44L308.13 26.88L308.13 26.88Q308.13 27.19 308.44 27.19L308.44 27.19L333.92 27.19L333.92 33L308.44 33L308.44 33Q305.89 33 304.11 31.22L304.11 31.22L304.11 31.22Q302.32 29.44 302.32 26.88L302.32 26.88L302.32 7.44L302.32 7.44Q302.32 4.88 304.11 3.10L304.11 3.10L304.11 3.10Q305.89 1.32 308.44 1.32L308.44 1.32L333.92 1.32ZM370.22 33L338.54 33L338.54 1.28L344.34 1.28L344.34 27.19L370.22 27.19L370.22 33ZM372.86 1.32L401.98 1.32L401.98 7.13L378.71 7.13L378.71 14.26L397.45 14.26L397.45 20.06L378.71 20.06L378.71 27.19L401.98 27.19L401.98 33L372.86 33L372.86 1.32ZM432.21 26.88L432.21 26.88L432.21 1.32L438.06 1.32L438.06 26.88L438.06 26.88Q438.06 29.44 436.26 31.22L436.26 31.22L436.26 31.22Q434.46 33 431.95 33L431.95 33L412.50 33L412.50 33Q409.95 33 408.17 31.22L408.17 31.22L408.17 31.22Q406.38 29.44 406.38 26.88L406.38 26.88L406.38 1.32L412.19 1.32L412.19 26.88L412.19 26.88Q412.19 27.19 412.50 27.19L412.50 27.19L431.95 27.19L431.95 27.19Q432.21 27.19 432.21 26.88ZM474.36 7.44L474.36 7.44L474.36 9.86L468.51 9.86L468.51 7.44L468.51 7.44Q468.51 7.13 468.25 7.13L468.25 7.13L448.80 7.13L448.80 7.13Q448.49 7.13 448.49 7.44L448.49 7.44L448.49 13.95L448.49 13.95Q448.49 14.26 448.80 14.26L448.80 14.26L468.25 14.26L468.25 14.26Q470.76 14.26 472.56 16.04L472.56 16.04L472.56 16.04Q474.36 17.82 474.36 20.37L474.36 20.37L474.36 26.88L474.36 26.88Q474.36 29.44 472.56 31.22L472.56 31.22L472.56 31.22Q470.76 33 468.25 33L468.25 33L448.80 33L448.80 33Q446.25 33 444.47 31.22L444.47 31.22L444.47 31.22Q442.68 29.44 442.68 26.88L442.68 26.88L442.68 24.46L448.49 24.46L448.49 26.88L448.49 26.88Q448.49 27.19 448.80 27.19L448.80 27.19L468.25 27.19L468.25 27.19Q468.51 27.19 468.51 26.88L468.51 26.88L468.51 20.37L468.51 20.37Q468.51 20.06 468.25 20.06L468.25 20.06L448.80 20.06L448.80 20.06Q446.25 20.06 444.47 18.28L444.47 18.28L444.47 18.28Q442.68 16.50 442.68 13.95L442.68 13.95L442.68 7.44L442.68 7.44Q442.68 4.88 444.47 3.10L444.47 3.10L444.47 3.10Q446.25 1.32 448.80 1.32L448.80 1.32L468.25 1.32L468.25 1.32Q470.76 1.32 472.56 3.10L472.56 3.10L472.56 3.10Q474.36 4.88 474.36 7.44Z" fill="#ffffff"/></g><g transform="translate(82,14)translate(-30,26.5)rotate(0)translate(30,-26.5) scale(-0.3333333333333333,0.3333333333333333)" opacity="1"><defs class="defs"/><ellipse fill="#1B6DC1" cx="59.963" cy="11.227" rx="11.194" ry="11.227" class="color c1"/><path fill="#1B6DC1" d="M156.322,83.716c-6.182,0-11.194,5.025-11.194,11.228c0,6.199,5.013,11.226,11.194,11.226&#10;&#9;c6.186,0,11.199-5.027,11.199-11.226C167.521,88.744,162.508,83.716,156.322,83.716z" class="color c1"/><path fill="#1B6DC1" d="M45.134,121.696c-6.182,0-11.196,5.027-11.196,11.229c0,6.201,5.014,11.229,11.196,11.229&#10;&#9;c6.18,0,11.195-5.029,11.195-11.229C56.329,126.721,51.313,121.696,45.134,121.696z" class="color c1"/><path fill="#ffffff" d="M144.456,102.324c-1.142-1.845-1.871-3.968-2.05-6.253c-3.366,0.938-6.975,1.771-10.76,2.503l2.4,5.862&#10;&#9;C137.667,103.794,141.163,103.106,144.456,102.324z M90.003,53.244C41.211,53.244,0,65.804,0,80.669&#10;&#9;c0,14.867,41.211,27.424,90.003,27.424c11.521,0,22.59-0.721,32.824-1.987l-1.736-5.84c-9.68,1.291-20.198,1.991-31.088,1.991&#10;&#9;c-20.583,0-39.95-2.411-54.535-6.795C20.348,90.919,12.02,84.656,12.02,77.814c0-6.839,8.328-13.104,23.448-17.651&#10;&#9;C50.05,55.785,69.42,53.37,90.003,53.37c20.572,0,39.94,2.415,54.524,6.793c15.123,4.545,23.447,10.813,23.447,17.651&#10;&#9;c0,2.223-0.894,4.387-2.606,6.45c2.53,2.155,4.274,5.202,4.771,8.655c6.274-3.711,9.86-7.879,9.86-12.25&#10;&#9;C179.998,65.804,138.779,53.244,90.003,53.244z" class="color c2"/><path fill="#ffffff" d="M43.525,119.001c0.528-0.063,1.066-0.098,1.61-0.098c1.771,0,3.458,0.34,5.012,0.941&#10;&#9;c0.896-3.676,2.061-7.586,3.458-11.668l-6.096-1.348C45.974,111.041,44.642,115.115,43.525,119.001z M61.879,150.496&#10;&#9;c-3.292,0.891-6.12,0.659-8.406-0.664c-1.45-0.836-2.592-2.131-3.484-3.773c-1.519,0.563-3.145,0.887-4.856,0.887&#10;&#9;c-2.046,0-3.99-0.455-5.749-1.256c0.3,6.506,2.108,11.133,5.614,13.16c11.166,6.465,36.414-15.031,58.85-48.625&#10;&#9;c-0.046-0.047-0.082-0.094-0.13-0.137C88.909,131.946,73.043,147.5,61.879,150.496z M134.999,2.492&#10;&#9;c-12.838-7.436-44.292,22.086-68.684,64.466c-5.722,9.939-10.606,19.849-14.614,29.31l5.884,1.448&#10;&#9;c3.677-8.901,8.292-18.327,13.769-27.84C81.649,52,93.415,36.384,104.486,25.91c11.486-10.872,21.058-14.964,26.966-11.546&#10;&#9;c5.899,3.418,7.149,13.784,3.517,29.191c-0.763,3.214-1.748,6.594-2.876,10.07c0.21,0.082,0.414,0.178,0.603,0.292&#10;&#9;C142.034,28.094,143.616,7.48,134.999,2.492z M113.568,94.324c-0.901,1.563-1.813,3.102-2.729,4.622&#10;&#9;c0.032,0.035,0.063,0.062,0.093,0.099c0.924-1.541,1.84-3.086,2.745-4.656c0.876-1.527,1.736-3.053,2.574-4.578&#10;&#9;c-0.043-0.008-0.088-0.016-0.135-0.023C115.288,91.298,114.436,92.811,113.568,94.324z M130.309,60.214&#10;&#9;c-0.166-0.007-0.326-0.021-0.488-0.047c-2.062,5.553-4.525,11.326-7.328,17.193c0.064,0.02,0.131,0.035,0.197,0.05&#10;&#9;C125.54,71.552,128.093,65.788,130.309,60.214z" class="color c2"/><path fill="#ffffff" d="M73.503,14.656c-0.615,2.444-1.852,4.632-3.554,6.376c4.68,3.722,9.676,8.668,14.758,14.562l3.588-5.348&#10;&#9;C83.275,24.256,78.287,18.988,73.503,14.656z M113.677,66.958c-5.518-9.595-11.45-18.601-17.472-26.69&#10;&#9;c-1.441,1.33-3.059,2.834-4.406,4.094c5.744,7.555,11.463,16.176,16.844,25.513c10.289,17.878,17.883,35.906,21.396,50.767&#10;&#9;c3.635,15.406,2.387,25.773-3.519,29.188c-5.905,3.422-15.478-0.676-26.961-11.539c-7.535-7.129-15.384-16.637-22.875-27.619&#10;&#9;c-0.056,0.029-0.11,0.066-0.164,0.095c22.34,33.284,47.374,54.521,58.48,48.086C147.833,151.417,138.07,109.332,113.677,66.958z&#10;&#9; M43.768,21.332c0.628-2.353,1.638-4.196,2.99-5.55c-0.49-1.429-0.771-2.954-0.771-4.552c0-3.836,1.542-7.311,4.032-9.844&#10;&#9;C48.096,1.306,46.412,1.675,45,2.494c-2.214,1.284-3.802,3.674-4.72,7.116c-2.516,9.399,0.208,25.439,6.896,44.014&#10;&#9;c0.196-0.09,0.406-0.17,0.627-0.23C43.441,39.892,41.857,28.488,43.768,21.332z M66.315,94.384c0.758,1.316,1.522,2.623,2.292,3.914&#10;&#9;c0.036-0.03,0.068-0.057,0.104-0.09c-0.768-1.285-1.532-2.582-2.286-3.891c-0.96-1.672-1.892-3.336-2.8-5.004&#10;&#9;c-0.044,0.018-0.092,0.023-0.136,0.039C64.414,91.033,65.353,92.708,66.315,94.384z M49.602,58.629&#10;&#9;c-0.166,0.017-0.33,0.039-0.504,0.039c-0.008,0-0.018-0.004-0.022-0.004c2.334,6.002,5.06,12.22,8.124,18.523&#10;&#9;c0.062-0.027,0.124-0.058,0.188-0.082C54.351,70.731,51.731,64.516,49.602,58.629z" class="color c2"/></g></svg>
